!!!COA: Josquin des Prez
!!!CDT: ~1450-1521/08/27
!!!OTL@@FRA: Fortuna d'un gran tempo
!!!AGN: Chanson
!!!SCT: NJE 27.12
!!!SCA: New Josquin Edition 27.12
!!!voices: 3
**kern	**kern	**kern
*staff3	*staff2	*staff1
*Ivox	*Ivox	*Ivox
*I"Contra	*I"Tenor	*I"Superius
*I'C	*I'T	*I'S
*clefF4	*clefGv2	*clefG2
*k[b-e-]	*k[b-]	*k[]
*M2/1	*M2/1	*M2/1
*met(C|)	*met(C|)	*met(C|)
=1-	=1-	=1-
0r	0r	1r
.	.	1g
=2	=2	=2
0r	0r	1.g
.	.	2f/
=3	=3	=3
0r	0r	1e
.	.	1d
=4	=4	=4
0r	1r	4c/
.	.	4d/
.	.	4e/
.	.	4f/
.	1c	2g/
.	.	4a/
.	.	4b\
=5	=5	=5
0r	1.c	2.cc\
.	.	4b\
.	.	2a/
.	2B-\	[2g/
=6	=6	=6
0r	1A	4g/]
.	.	4c/
.	.	1f
.	1G	.
.	.	2e/
=7	=7	=7
1r	4F/	0f
.	4G/	.
.	4A/	.
.	4B-\	.
1F	2c\	.
.	4d\	.
.	4e\	.
=8	=8	=8
1.F	2.f\	1r
.	4e\	.
.	2d\	[1f
2E-\	[2c\	.
=9	=9	=9
1D	4c\]	2f/]
.	4F/	.
.	1B-	4e-i/
.	.	4d/
1C	.	1e-i
.	2A/	.
=10	=10	=10
1BB-	0B-	1d
2r	.	2r
2BB-/	.	2d/
=11	=11	=11
4C/	0r	2.e-i/
4D\	.	.
4E-\	.	.
4F\	.	4d/
2G\	.	2e-i/
2A\	.	2f/
=12	=12	=12
2B-\	1r	0d
1c	.	.
.	2r	.
2Bni\	2G/	.
=13	=13	=13
1c	2.A/	2c/
.	.	2e/
.	4G/	.
1r	2A/	2f/
.	2B-\	[2g/
=14	=14	=14
1r	0G	4g/]
.	.	4f/
.	.	1f
2r	.	.
2C/	.	2e/
=15	=15	=15
2.D\	2F/	1f
.	2A/	.
4C/	.	.
2D\	2B-\	1r
2E-\	[2c\	.
=16	=16	=16
0C	4c\]	0r
.	4B-\	.
.	1B-	.
.	2A/	.
=17	=17	=17
[0BB-	1B-	1d
.	2r	2d/
.	[2B-\	2d/
=18	=18	=18
0BB-]	4B-\]	1.d
.	4A/	.
.	2F/	.
.	2.G/	.
.	.	2e/
.	4F/	.
=19	=19	=19
0r	4D/	2.f/
.	4E/	.
.	4F/	.
.	4G/	4f/
.	4A/	2f/
.	4B-\	.
.	4c\	2f/
.	4d\	.
=20	=20	=20
0r	2G/	1e
.	1c	.
.	.	1d
.	2Bni\	.
=21	=21	=21
1.C	1c	4c/
.	.	4d/
.	.	4e/
.	.	4f/
.	2r	2g/
2C/	[2c\	[2a/
=22	=22	=22
1.C	4c\]	4a/]
.	4B-\	4g/
.	4A/	1g
.	4G/	.
.	1A	.
2D\	.	2f#i/
=23	=23	=23
2.E-\	1.G	1g
4E-\	.	.
2E-\	.	2r
[2E-\	2G/	[2g/
=24	=24	=24
4E-\]	1.G	4g/]
4D\	.	4f/
4C/	.	4e-i/
4BB-/	.	4d/
1C	.	1e-i
.	2A/	.
=25	=25	=25
0BB-	2.B-\	2r
.	.	2.d/
.	4B-\	.
.	2B-\	.
.	.	4e/
.	2B-\	4f/
.	.	4g/
=26	=26	=26
1r	1A	2c/
.	.	1f
1C	1G	.
.	.	2e/
=27	=27	=27
2.D\	1F	0f
4E-\	.	.
2.F\	2r	.
.	2F/	.
8G\L	.	.
8A\J	.	.
=28	=28	=28
2.B-\	1.G	0r
4c\	.	.
4d\	.	.
4e-\	.	.
[2d\	2F/	.
=29	=29	=29
4d\]	1E	0r
4c\	.	.
1c	.	.
.	1D	.
2Bni\	.	.
=30	=30	=30
0c	2.C/	1r
.	4BB-/	.
.	4C/	1g
.	4D/	.
.	4E/	.
.	4F/	.
=31	=31	=31
0r	4G/	1.g
.	4F/	.
.	4G/	.
.	4A/	.
.	4B-\	.
.	4c\	.
.	[2d\	2f/
=32	=32	=32
0r	4d\]	1e
.	4c\	.
.	1c	.
.	.	1d
.	2Bni\	.
=33	=33	=33
[0C	1c	4c/
.	.	4d/
.	.	4e/
.	.	4f/
.	2r	2g/
.	2c\	4a/
.	.	4b\
=34	=34	=34
0C_	1.c	2.cc\
.	.	4b\
.	.	2a/
.	2B-\	[2g/
=35	=35	=35
0C]	1A	4g/]
.	.	4c/
.	.	1f
.	1G	.
.	.	2e/
=36	=36	=36
1r	4F/	0f
.	4G/	.
.	4A/	.
.	4B-\	.
1F	2c\	.
.	4d\	.
.	4e\	.
=37	=37	=37
1.F	2.f\	1r
.	4e\	.
.	2d\	[1f
2E-\	[2c\	.
=38	=38	=38
1D	4c\]	2f/]
.	4F/	.
.	1B-	4e-i/
.	.	4d/
1C	.	1e-i
.	2A/	.
=39	=39	=39
1BB-	0B-	1d
2r	.	2r
2BB-/	.	2d/
=40	=40	=40
4C/	0r	2.e-i/
4D\	.	.
4E-\	.	.
4F\	.	4d/
2G\	.	2e-i/
2A\	.	2f/
=41	=41	=41
2B-\	1r	0d
1c	.	.
.	2r	.
2Bni\	2G/	.
=42	=42	=42
1c	2.A/	2c/
.	.	2e/
.	4G/	.
1r	2A/	2f/
.	2B-\	[2g/
=43	=43	=43
1r	0G	4g/]
.	.	4f/
.	.	1f
2r	.	.
2C/	.	2e/
=44	=44	=44
2.D\	1F	1.f
4C/	.	.
2D\	2r	.
2E-\	2G/	2g/
=45	=45	=45
2C/	2.A/	2e/
1F	.	1a
.	4G/	.
.	2A/	.
4E-\	2B-\	[2g/
4D\	.	.
=46	=46	=46
2.E-\	0G	4g/]
.	.	4f/
.	.	1f
4F\	.	.
1C	.	.
.	.	2e/
=47	=47	=47
0Fl	0Fl	0fl
==	==	==
*-	*-	*-
!!!RDF**kern: l=long note in original notation
!!!RDF**kern: i=editorial accidental
!!!ENC: Jesse Rodin; Victoria Chang 2011/05/30/
!!!END: 2011/05/30/
!!!EED: Jesse Rodin
!!!EEV: 2011/08/12/
!!attribution-level@Jos: 2 (slightly less secure)
!!!ONB: Translated from MusicXML and edited on 2011/08/12/ by Craig Sapp
!!muse2ps:  C^@{COM}{/}@{COA}?\n@{SCT}^v100,100,150I150Q16
